!!! OTL: Berkowitz205
!!! Chapter: 1
!!! Section: II
!!! Page: 46
!!! Mode: 
!!! Encoder: DJB
**kern
*staff1
*I"Piano
=1-
*clefC3
*k[f#c#g#d#]
*E:
*M2/4
8b\L
8B\J
8c#\L
8cc#\J
=2
8b\L
8B\J
4c#\
=3
8a\L
8g#\J
8f#\L
8e\J
=4
8d#\L
8b\J
4B/
=5
8cc#\L
8c#\J
8d#\L
8B\J
=6
8a\L
16g#\L
16f#\JJ
4g#\
=7
8f#\L
8B\J
8b\L
8d#\J
=8
4f#\
8e\
8r
==
*-
